X:23
T:Suite de slides
R:slide
M:6/8
L:1/8
Q:3/8=130
%Q:3/8=110
K:Gmaj
d3 d3 d3 d2d
%
|:efg edB|c2A BGE|GFG BdB|BAG ABd|
efg edB|cBA BGE|GFG BdB|1 AGG GBd:|2 AGG G2D||
|: GBd gfg|agf g2f|gfe fdB|cBA BGE|
GBd gfg|agf g2f|gfg B/c/dB|1 AGG G2D:|2 AGG GBd||
%
|:efg edB|c2A BGE|GFG BdB|BAG ABd|
efg edB|cBA BGE|GFG BdB|1 AGG GBd:|2 AGG G2D||
|: GBd gfg|agf g2f|gfe fdB|cBA BGE|
GBd gfg|agf g2f|gfg B/c/dB|1 AGG G2D:|2 AGG GBd||
%
|:efg edB|c2A BGE|GFG BdB|BAG ABd|
efg edB|cBA BGE|GFG BdB|1 AGG GBd:|2 AGG G2D||
|: GBd gfg|agf g2f|gfe fdB|cBA BGE|
GBd gfg|agf g2f|gfg B/c/dB|1 AGG G2D:|2 AGG GBd||
%
% This Is My Love, Do You Like Her?
%
K:Ador
%
|: A2A AGE c2B c2d|efe ede g3 g2e|
def g2e dBA G2A|1Bde dBG A2B c2B:|2Bde dBG A3 ABd||
|:eaa age dgg gfg|eaa agf g2b a2g|
eaf g2e dBA G2A|1Bde dBG A3 ABd:|2bde dBG A2B c2B||
%
|: A2A AGE c2B c2d|efe ede g3 g2e|
def g2e dBA G2A|1Bde dBG A2B c2B:|2Bde dBG A3 ABd||
|:eaa age dgg gfg|eaa agf g2b a2g|
eaf g2e dBA G2A|1Bde dBG A3 ABd:|2bde dBG A2B c2B||
%
|: A2A AGE c2B c2d|efe ede g3 g2e|
def g2e dBA G2A|1Bde dBG A2B c2B:|2Bde dBG A3 ABd||
|:eaa age dgg gfg|eaa agf g2b a2g|
eaf g2e dBA G2A|1Bde dBG A3 ABd:|2bde dBG A2B c2B||

